img/svg/icon-font/money-bag.svg

<svg width="22" height="22" viewBox="0 0 22 22" fill="none" xmlns="http://www.w3.org/2000/svg">
<g clip-path="url(#clip0)">
<path fill-rule="evenodd" clip-rule="evenodd" d="M17.463 6.47067C18.7598 7.46974 19.7976 8.56033 20.5477 9.71219C21.5114 11.1921 22 12.7722 22 14.4084C22 14.8821 21.616 15.2661 21.1423 15.2661C20.6686 15.2661 20.2846 14.8821 20.2846 14.4084C20.2846 11.6668 18.5335 9.53194 16.6845 8.04191C17.8786 9.86237 18.4834 11.7272 18.4834 13.5936C18.4834 14.0673 18.0994 14.4513 17.6257 14.4513C17.1521 14.4513 16.768 14.0673 16.768 13.5936C16.768 10.9375 15.228 8.25087 12.1906 5.6085L12.1511 5.57417H9.39065C8.89891 5.78382 7.20066 6.55416 5.53201 7.85323C2.99952 9.82481 1.7154 12.0304 1.7154 14.4084C1.7154 17.9466 3.75929 20.1961 7.05001 20.2813L14.7644 20.2837C16.6994 20.2401 18.2894 19.4705 19.2427 18.1158C19.5153 17.7284 20.0503 17.6354 20.4377 17.908C20.8251 18.1806 20.9182 18.7157 20.6456 19.1031C19.369 20.9172 17.2902 21.9456 14.7919 21.9989L14.7734 21.9991L7.0388 21.9967L7.01804 21.9965C4.96646 21.9462 3.219 21.2224 1.9647 19.9035C0.679379 18.552 0 16.6518 0 14.4084C0 12.7729 0.48602 11.1934 1.44448 9.71387C2.19076 8.56192 3.22343 7.4712 4.51382 6.47196C5.92848 5.37647 7.33335 4.63651 8.16174 4.24558L7.00498 1.2516C6.96691 1.15299 6.94736 1.04819 6.94736 0.942485V0.85672C6.94736 0.574974 7.08576 0.311145 7.31758 0.151001C7.54944 -0.00914353 7.84515 -0.0451513 8.10868 0.0545361C10.0391 0.785306 11.9167 0.785177 13.8486 0.0544932C14.1121 -0.0451514 14.4078 -0.0090576 14.6395 0.151087C14.8713 0.311231 15.0097 0.574974 15.0097 0.85672V0.942485C15.0097 1.04819 14.9902 1.15303 14.9521 1.2516L13.7959 4.24416C14.6281 4.63475 16.0405 5.37475 17.463 6.47067ZM9.85123 3.85869H12.1058L12.7697 2.14041C11.577 2.37133 10.3798 2.37141 9.18745 2.14063L9.85123 3.85869ZM11.8356 18.0551C11.8356 18.5288 11.4516 18.9128 10.9779 18.9128C10.5042 18.9128 10.1202 18.5288 10.1201 18.0552V17.5815C8.95904 17.5413 8.06078 16.634 8.06078 15.4821C8.06078 15.0084 8.44479 14.6244 8.91848 14.6244C9.39216 14.6244 9.77617 15.0084 9.77617 15.4821C9.77617 15.7354 9.98956 15.868 10.2003 15.868H11.4776C11.8778 15.868 12.1795 15.5868 12.1795 15.214V15.0035C12.1795 14.6225 11.8712 14.3242 11.4776 14.3242H10.6917C9.36148 14.3242 8.27927 13.2276 8.27927 11.8797V11.5669C8.27927 10.9187 8.53223 10.3142 8.99152 9.86475C9.30687 9.55619 9.69569 9.34452 10.1202 9.24432V8.6633C10.1202 8.18961 10.5042 7.8056 10.9779 7.8056C11.4516 7.8056 11.8356 8.18961 11.8356 8.6633V9.21484C12.8357 9.39862 13.5948 10.2564 13.5948 11.2843C13.5948 11.758 13.2108 12.142 12.7371 12.142C12.2634 12.142 11.8794 11.758 11.8794 11.2843C11.8794 11.0396 11.6534 10.8933 11.435 10.8933H10.6918C10.2944 10.8933 9.99471 11.1829 9.99471 11.5669V11.8797C9.99471 12.2749 10.3139 12.6087 10.6918 12.6087H11.4777C12.1216 12.6087 12.7264 12.8538 13.1806 13.2987C13.6413 13.7499 13.8949 14.3553 13.8949 15.0034V15.2139C13.8949 16.4231 13.0155 17.3935 11.8356 17.5583V18.0551Z" fill="#4C51CB"/>
</g>
<defs>
<clipPath id="clip0">
<rect width="22" height="22" fill="white"/>
</clipPath>
</defs>
</svg>

<svg width="22" height="22" fill="none" xmlns="http://www.w3.org/2000/svg"><g clip-path="url(#clip0)"><path fill-rule="evenodd" clip-rule="evenodd" d="M17.463 6.47c1.297 1 2.335 2.09 3.085 3.242.963 1.48 1.452 3.06 1.452 4.696a.858.858 0 11-1.715 0c0-2.741-1.752-4.876-3.6-6.366 1.194 1.82 1.798 3.685 1.798 5.552a.858.858 0 11-1.715 0c0-2.656-1.54-5.343-4.577-7.985l-.04-.035h-2.76c-.492.21-2.19.98-3.859 2.28C3 9.823 1.715 12.03 1.715 14.407c0 3.539 2.044 5.788 5.335 5.873l7.714.003c1.935-.044 3.525-.813 4.479-2.168a.858.858 0 111.403.987c-1.277 1.814-3.356 2.843-5.854 2.896h-.019l-7.734-.002h-.021c-2.052-.05-3.799-.775-5.053-2.093C.679 18.552 0 16.652 0 14.408c0-1.635.486-3.215 1.444-4.694.747-1.152 1.78-2.243 3.07-3.242a20.15 20.15 0 013.648-2.226L7.005 1.252a.858.858 0 01-.058-.31V.857A.858.858 0 018.11.055c1.93.73 3.808.73 5.74 0a.858.858 0 011.16.802v.085a.864.864 0 01-.057.31l-1.156 2.992c.832.39 2.245 1.13 3.667 2.227zM9.851 3.86h2.255l.664-1.719a9.351 9.351 0 01-3.583 0l.664 1.719zm1.985 14.196a.858.858 0 01-1.716 0v-.474c-1.161-.04-2.06-.947-2.06-2.099a.858.858 0 111.716 0c0 .253.214.386.424.386h1.278c.4 0 .702-.281.702-.654v-.21a.683.683 0 00-.702-.68h-.786c-1.33 0-2.413-1.096-2.413-2.444v-.313c0-.648.253-1.253.713-1.702.315-.309.704-.52 1.128-.62v-.582a.858.858 0 111.716 0v.552c1 .184 1.759 1.041 1.759 2.07a.858.858 0 11-1.716 0c0-.245-.226-.392-.444-.392h-.743c-.398 0-.697.29-.697.674v.313c0 .395.319.729.697.729h.786c.644 0 1.248.245 1.703.69.46.45.714 1.056.714 1.704v.21c0 1.21-.88 2.18-2.06 2.345v.497z" fill="#4C51CB"/></g><defs><clipPath id="clip0"><path fill="#fff" d="M0 0h22v22H0z"/></clipPath></defs></svg>
